X:3962
T:Le contrefeseur
C:Charles B\^aton
Z:Transcribed by Frank Nordberg - http://www.musicaviva.com
F:http://abc.musicaviva.com/tunes/baton-charles/baton-contrefeseur/baton-contrefeseur-2h.abc
V:1 Program 1 73 %Flute
V:2 Program 1 72 %Piccolo
M:6/8
L:1/8
K:Bb
V:1
f|b2z z2f|b2z z2f|b2a gfe|d2c def|(cd)B A2B|c3-c2f|
V:2
z|z2f b2z|z2f b2z|z2f b2a|bBA Bcd|(ef)d c2B|(A2c) F2z|
%
V:1
c2z z2f|c2z z2f|cBA BAG|ABc d=ef|(=ec)f (AB)G|F3-F2::c|
V:2
z2f c2z|z2f c2z|z2f c2=e|f2F B2G|c2A (fg)=e|f2c F2::z|
%
V:1
f2z z2c|f2z z2c|f2e dcB|A2F Bcd|(cd)e d2e|f3-f2b|
V:2
z2c f2z|z2c f2z|z2c f2=e|f2_e dcB|(ed)c B2c|(A2f) d2z|
%
V:1
f2z z2b|f2z z2b|fed edc|def gab|(af)b (de)c|B3-B2:|
V:2
z2b f2z|z2b f2z|z2b f2a|b2B e2c|f2d (bc')a|b2f B2:|
W:
W:
W:  From Musica Viva - http://www.musicaviva.com
W:  the Internet center for free sheet music downloads.
